X:19
T:No.139 Moll and Tiarna
M:4/4
L:1/8
C:reel
K:D
Addd efdB|Addd dedB|ABde fdeg|fage fdBB|
Addd efdB|Addd dedB|ABde faed|cAAA cAAA:|
fdgd fdgd|fage fdBA|fdgd fefg|aAAA aAAA|
fdgd fdgd|fage fefg|abaf egfd|cAAA cAAA:|
